svg/icon/vivo.svg

<svg xmlns="http://www.w3.org/2000/svg" xmlns:xlink="http://www.w3.org/1999/xlink" width="32" height="32" viewBox="0 0 32 32"><defs><linearGradient id="vivo-c" x1="50%" x2="50%" y1="0%" y2="100%"><stop offset="0%" stop-color="#FFF" stop-opacity=".5"/><stop offset="100%" stop-opacity=".5"/></linearGradient><circle id="vivo-b" cx="16" cy="15" r="15"/><filter id="vivo-a" width="111.7%" height="111.7%" x="-5.8%" y="-4.2%" filterUnits="objectBoundingBox"><feOffset dy=".5" in="SourceAlpha" result="shadowOffsetOuter1"/><feGaussianBlur in="shadowOffsetOuter1" result="shadowBlurOuter1" stdDeviation=".5"/><feComposite in="shadowBlurOuter1" in2="SourceAlpha" operator="out" result="shadowBlurOuter1"/><feColorMatrix in="shadowBlurOuter1" values="0 0 0 0 0 0 0 0 0 0 0 0 0 0 0 0 0 0 0.199473505 0"/></filter><path id="vivo-e" d="M23.048789,9.27677495 C23.5085011,8.51089976 24.4892123,8.27056512 25.2392688,8.73997249 C25.9893254,9.20937986 26.2246961,10.2107742 25.764984,10.9766494 C24.0610818,13.8153314 22.1383191,16.7850248 20.5350076,19.0529597 C18.1944019,22.3638206 17.6875856,23.5 15.9999826,23.5 C14.3123796,23.5 13.932148,22.4972537 11.5251357,19.0441389 C10.0955724,16.9932784 8.30204544,14.2489715 6.25458098,11.0084712 C5.77765721,10.253649 5.99029992,9.24696776 6.72953176,8.75998569 C7.46876361,8.27300363 8.45465252,8.49013096 8.93157629,9.24495316 C10.9550081,12.4474172 15.5252347,19.1212257 16.0130201,19.7164558 C16.5221044,19.1119184 21.385028,12.0485822 23.048789,9.27677495 Z"/><filter id="vivo-d" width="117.5%" height="123.3%" x="-8.8%" y="-8.3%" filterUnits="objectBoundingBox"><feOffset dy=".5" in="SourceAlpha" result="shadowOffsetOuter1"/><feGaussianBlur in="shadowOffsetOuter1" result="shadowBlurOuter1" stdDeviation=".5"/><feColorMatrix in="shadowBlurOuter1" values="0 0 0 0 0 0 0 0 0 0 0 0 0 0 0 0 0 0 0.204257246 0"/></filter></defs><g fill="none" fill-rule="evenodd"><use fill="#000" filter="url(#vivo-a)" xlink:href="#vivo-b"/><use fill="#408AF1" xlink:href="#vivo-b"/><use fill="url(#vivo-c)" style="mix-blend-mode:soft-light" xlink:href="#vivo-b"/><circle cx="16" cy="15" r="14.5" stroke="#000" stroke-opacity=".097"/><g fill-rule="nonzero"><use fill="#000" filter="url(#vivo-d)" xlink:href="#vivo-e"/><use fill="#FFF" fill-rule="evenodd" xlink:href="#vivo-e"/></g></g></svg>

<svg xmlns="http://www.w3.org/2000/svg" xmlns:xlink="http://www.w3.org/1999/xlink" width="32" height="32" viewBox="0 0 32 32"><defs><linearGradient id="c" x1="50%" x2="50%" y1="0%" y2="100%"><stop offset="0%" stop-color="#FFF" stop-opacity=".5"/><stop offset="100%" stop-opacity=".5"/></linearGradient><circle id="b" cx="16" cy="15" r="15"/><filter id="a" width="111.7%" height="111.7%" x="-5.8%" y="-4.2%" filterUnits="objectBoundingBox"><feOffset dy=".5" in="SourceAlpha" result="shadowOffsetOuter1"/><feGaussianBlur in="shadowOffsetOuter1" result="shadowBlurOuter1" stdDeviation=".5"/><feComposite in="shadowBlurOuter1" in2="SourceAlpha" operator="out" result="shadowBlurOuter1"/><feColorMatrix in="shadowBlurOuter1" values="0 0 0 0 0 0 0 0 0 0 0 0 0 0 0 0 0 0 0.199473505 0"/></filter><path id="e" d="M23.049 9.277a1.574 1.574 0 0 1 2.19-.537c.75.47.986 1.47.526 2.237-1.704 2.838-3.627 5.808-5.23 8.076-2.34 3.31-2.847 4.447-4.535 4.447-1.688 0-2.068-1.003-4.475-4.456-1.43-2.05-3.223-4.795-5.27-8.036A1.647 1.647 0 0 1 6.73 8.76a1.573 1.573 0 0 1 2.202.485c2.023 3.202 6.593 9.876 7.081 10.471.51-.604 5.372-7.667 7.036-10.44z"/><filter id="d" width="117.5%" height="123.3%" x="-8.8%" y="-8.3%" filterUnits="objectBoundingBox"><feOffset dy=".5" in="SourceAlpha" result="shadowOffsetOuter1"/><feGaussianBlur in="shadowOffsetOuter1" result="shadowBlurOuter1" stdDeviation=".5"/><feColorMatrix in="shadowBlurOuter1" values="0 0 0 0 0 0 0 0 0 0 0 0 0 0 0 0 0 0 0.204257246 0"/></filter></defs><g fill="none" fill-rule="evenodd"><use fill="#000" filter="url(#a)" xlink:href="#b"/><use fill="#408AF1" xlink:href="#b"/><use fill="url(#c)" style="mix-blend-mode:soft-light" xlink:href="#b"/><circle cx="16" cy="15" r="14.5" stroke="#000" stroke-opacity=".097"/><g fill-rule="nonzero"><use fill="#000" filter="url(#d)" xlink:href="#e"/><use fill="#FFF" fill-rule="evenodd" xlink:href="#e"/></g></g></svg>
